public/assets/img/com/ico-advice.svg

<svg width="30" height="30" viewBox="0 0 30 30" fill="none" xmlns="http://www.w3.org/2000/svg">
<g clip-path="url(#clip0_310_111)">
<path d="M23.75 12.5C24.7446 12.5 25.6984 12.8951 26.4017 13.5983C27.1049 14.3016 27.5 15.2554 27.5 16.25V20C27.5 20.9946 27.1049 21.9484 26.4017 22.6517C25.6984 23.3549 24.7446 23.75 23.75 23.75V24.9575C23.75 26.2825 22.205 27.0063 21.1875 26.1575L18.2975 23.75H15C14.0054 23.75 13.0516 23.3549 12.3483 22.6517C11.6451 21.9484 11.25 20.9946 11.25 20V16.25C11.25 15.2554 11.6451 14.3016 12.3483 13.5983C13.0516 12.8951 14.0054 12.5 15 12.5H23.75ZM20 5C20.9946 5 21.9484 5.39509 22.6517 6.09835C23.3549 6.80161 23.75 7.75544 23.75 8.75V10H13.75C12.4239 10 11.1521 10.5268 10.2145 11.4645C9.27678 12.4021 8.75 13.6739 8.75 15V20C8.75 21.305 9.25 22.495 10.07 23.385L8.75 24.375C7.72 25.1475 6.25 24.4125 6.25 23.125V21.25C5.25544 21.25 4.30161 20.8549 3.59835 20.1517C2.89509 19.4484 2.5 18.4946 2.5 17.5V8.75C2.5 7.75544 2.89509 6.80161 3.59835 6.09835C4.30161 5.39509 5.25544 5 6.25 5H20Z" fill="#B1B1B1"/>
</g>
<defs>
<clipPath id="clip0_310_111">
<rect width="30" height="30" fill="white"/>
</clipPath>
</defs>
</svg>

<svg xmlns="http://www.w3.org/2000/svg" width="30" height="30" fill="none" viewBox="0 0 30 30"><g clip-path="url(#a)"><path fill="#b1b1b1" d="M23.75 12.5a3.75 3.75 0 0 1 3.75 3.75V20a3.75 3.75 0 0 1-3.75 3.75v1.207c0 1.325-1.545 2.05-2.562 1.2l-2.89-2.407H15A3.75 3.75 0 0 1 11.25 20v-3.75A3.75 3.75 0 0 1 15 12.5zM20 5a3.75 3.75 0 0 1 3.75 3.75V10h-10a5 5 0 0 0-5 5v5c0 1.305.5 2.495 1.32 3.385l-1.32.99c-1.03.773-2.5.038-2.5-1.25V21.25A3.75 3.75 0 0 1 2.5 17.5V8.75A3.75 3.75 0 0 1 6.25 5z"/></g><defs><clipPath id="a"><path fill="#fff" d="M0 0h30v30H0z"/></clipPath></defs></svg>
